src/shared/assets/icons/arrow.svg

<svg width="28" height="31" viewBox="0 0 28 31" fill="none" xmlns="http://www.w3.org/2000/svg">
<path fill-rule="evenodd" clip-rule="evenodd" d="M23.0888 14.7083L22.9917 14.5867L17.1584 8.12832C16.7028 7.62389 15.9641 7.62389 15.5085 8.12832C15.0879 8.59395 15.0555 9.32662 15.4114 9.83333L15.5085 9.95501L19.3492 14.2083H5.83341C5.18908 14.2083 4.66675 14.7866 4.66675 15.5C4.66675 16.1624 5.11713 16.7084 5.69736 16.783L5.83341 16.7917H19.3492L15.5085 21.045C15.0879 21.5106 15.0555 22.2433 15.4114 22.75L15.5085 22.8717C15.929 23.3373 16.5908 23.3731 17.0485 22.9791L17.1584 22.8717L22.9917 16.4133C23.4123 15.9477 23.4446 15.215 23.0888 14.7083Z" fill="#1FC6C6"/>
</svg>

<svg xmlns="http://www.w3.org/2000/svg" width="28" height="31" fill="none"><path fill="#1FC6C6" fill-rule="evenodd" d="m23.089 14.708-.097-.121-5.834-6.459a1.089 1.089 0 0 0-1.65 0 1.396 1.396 0 0 0-.097 1.705l.098.122 3.84 4.253H5.833c-.644 0-1.166.579-1.166 1.292 0 .662.45 1.208 1.03 1.283l.136.009H19.35l-3.84 4.253a1.396 1.396 0 0 0-.098 1.705l.098.122c.42.465 1.082.501 1.54.107l.11-.107 5.833-6.459c.42-.465.453-1.198.097-1.705Z" clip-rule="evenodd"/></svg>
